X: 1
T: Karsi Bar
O: Armenia
Z: 1997 by John Chambers <jc@trillian.mit.edu> http://trillian.mit.edu/~jc/music/
N: Heavy beat, with off-beat chords throughout.  Yes, it's in G Dorian with C chords.
M: 2/4
L: 1/8
K: GDor
P: A
|: "C"c2 "/"d2 | "-"d2 "/"cB | "-"c2 "/"d2 | "-"d2- "/"d2 | "-"B2 "/"c2 | "-"dc "/"B2 | "-"AB "/"G2 | "/"G4 :|
P: B
|: "C7"BA G2 | BA G2 | AB cB | c2- c2 | AB cB | c2 AB | G2 "C"G2 | "C"G4 :|
P: A'
|: "C"B2 c2 | c2 BA | B2 c2 | c2- c2 | B2 c2 | dc B2 | AB G2 | G4 :|
P: B
|: "C7"BA G2 | BA G2 | AB cB | c2- c2 | AB cB | c2 AB | G2 "C"G2 | "C"G4 :|
